X: 1
T: Early Morning, The
M: 4/4
L: 1/8
R: reel
K: Cmaj
G2|:C2 CD ECEG|cdec dcAB|cdcA GAcA|GECE DFED|
C2 CD ECEG|cdec dcAB|cdcA GAcA|GEDE C4:|
c2 cd ecfe| dcBc dBGB|cBAG AGFE|FEDC DGAB|
c2 cd ecfe| dcBc dBGB|cBAG FAFE| ECDB, CGAB|
c2 cd ecfe| dcBc dBGB|cBAG AGFE| FEDC DFED|
C2 CD ECEG|cdec dcAB|cdcA GAcA|GEDE C2||
